IMG/ICON/square-instagram-brands-solid.svg

<svg width="448" height="512" viewBox="0 0 448 512" fill="none" xmlns="http://www.w3.org/2000/svg">
<path d="M194.4 211.7C188.576 215.594 183.576 220.596 179.685 226.423C175.794 232.249 173.089 238.784 171.724 245.656C168.967 259.533 171.836 273.938 179.7 285.7C187.564 297.462 199.778 305.619 213.656 308.376C227.533 311.133 241.938 308.264 253.7 300.4C265.462 292.536 273.619 280.322 276.376 266.444C279.133 252.567 276.264 238.162 268.4 226.4C260.536 214.638 248.322 206.481 234.444 203.724C220.567 200.967 206.162 203.836 194.4 211.7ZM336.7 143.3C331.5 138.1 325.2 134 318.3 131.3C300.2 124.2 260.7 124.5 235.2 124.8C231.1 124.8 227.3 124.9 224 124.9C220.7 124.9 216.8 124.9 212.6 124.8C187.1 124.5 147.8 124.1 129.7 131.3C122.8 134 116.6 138.1 111.3 143.3C106 148.5 102 154.8 99.3 161.7C92.2 179.8 92.6 219.4 92.8 244.9C92.8 249 92.9 252.8 92.9 256C92.9 259.2 92.9 263 92.8 267.1C92.6 292.6 92.2 332.2 99.3 350.3C102 357.2 106.1 363.4 111.3 368.7C116.5 374 122.8 378 129.7 380.7C147.8 387.8 187.3 387.5 212.8 387.2C216.9 387.2 220.7 387.1 224 387.1C227.3 387.1 231.2 387.1 235.4 387.2C260.9 387.5 300.2 387.9 318.3 380.7C325.2 378 331.4 373.9 336.7 368.7C342 363.5 346 357.2 348.7 350.3C355.9 332.3 355.5 292.9 355.2 267.3C355.2 263.1 355.1 259.2 355.1 255.9C355.1 252.6 355.1 248.8 355.2 244.5C355.5 219 355.9 179.6 348.7 161.5C346 154.6 341.9 148.4 336.7 143.1V143.3ZM269.6 187.8C287.688 199.894 300.23 218.678 304.469 240.019C308.707 261.361 304.294 283.512 292.2 301.6C286.212 310.556 278.518 318.245 269.558 324.228C260.598 330.211 250.548 334.37 239.981 336.469C218.639 340.707 196.488 336.294 178.4 324.2C160.312 312.119 147.764 293.348 143.517 272.016C139.269 250.684 143.669 228.538 155.75 210.45C167.831 192.362 186.602 179.814 207.934 175.567C229.266 171.319 251.412 175.719 269.5 187.8H269.6ZM298.8 186.5C295.7 184.4 293.2 181.4 291.7 177.9C290.2 174.4 289.9 170.6 290.6 166.8C291.3 163 293.2 159.7 295.8 157C298.4 154.3 301.9 152.5 305.6 151.8C309.3 151.1 313.2 151.4 316.7 152.9C320.2 154.4 323.2 156.8 325.3 159.9C327.4 163 328.5 166.7 328.5 170.5C328.5 173 328 175.5 327.1 177.8C326.2 180.1 324.7 182.2 323 184C321.3 185.8 319.1 187.2 316.8 188.2C314.5 189.2 312 189.7 309.5 189.7C305.7 189.7 302 188.6 298.9 186.5H298.8ZM448 96C448 60.7 419.3 32 384 32H64C28.7 32 0 60.7 0 96V416C0 451.3 28.7 480 64 480H384C419.3 480 448 451.3 448 416V96ZM357 389C338.3 407.7 315.6 413.6 290 414.9C263.6 416.4 184.4 416.4 158 414.9C132.4 413.6 109.7 407.7 91 389C72.3 370.3 66.4 347.6 65.2 322C63.7 295.6 63.7 216.4 65.2 190C66.5 164.4 72.3 141.7 91 123C109.7 104.3 132.5 98.4 158 97.2C184.4 95.7 263.6 95.7 290 97.2C315.6 98.5 338.3 104.3 357 123C375.7 141.7 381.6 164.4 382.8 190C384.3 216.3 384.3 295.4 382.8 321.9C381.5 347.5 375.7 370.2 357 388.9V389Z" fill="white"/>
</svg>

<svg xmlns="http://www.w3.org/2000/svg" viewBox="0 0 448 512"><!--!Font Awesome Free 6.6.0 by @fontawesome - https://fontawesome.com License - https://fontawesome.com/license/free Copyright 2024 Fonticons, Inc.--><path d="M194.4 211.7a53.3 53.3 0 1 0 59.3 88.7 53.3 53.3 0 1 0 -59.3-88.7zm142.3-68.4c-5.2-5.2-11.5-9.3-18.4-12c-18.1-7.1-57.6-6.8-83.1-6.5c-4.1 0-7.9 .1-11.2 .1c-3.3 0-7.2 0-11.4-.1c-25.5-.3-64.8-.7-82.9 6.5c-6.9 2.7-13.1 6.8-18.4 12s-9.3 11.5-12 18.4c-7.1 18.1-6.7 57.7-6.5 83.2c0 4.1 .1 7.9 .1 11.1s0 7-.1 11.1c-.2 25.5-.6 65.1 6.5 83.2c2.7 6.9 6.8 13.1 12 18.4s11.5 9.3 18.4 12c18.1 7.1 57.6 6.8 83.1 6.5c4.1 0 7.9-.1 11.2-.1c3.3 0 7.2 0 11.4 .1c25.5 .3 64.8 .7 82.9-6.5c6.9-2.7 13.1-6.8 18.4-12s9.3-11.5 12-18.4c7.2-18 6.8-57.4 6.5-83c0-4.2-.1-8.1-.1-11.4s0-7.1 .1-11.4c.3-25.5 .7-64.9-6.5-83l0 0c-2.7-6.9-6.8-13.1-12-18.4zm-67.1 44.5A82 82 0 1 1 178.4 324.2a82 82 0 1 1 91.1-136.4zm29.2-1.3c-3.1-2.1-5.6-5.1-7.1-8.6s-1.8-7.3-1.1-11.1s2.6-7.1 5.2-9.8s6.1-4.5 9.8-5.2s7.6-.4 11.1 1.1s6.5 3.9 8.6 7s3.2 6.8 3.2 10.6c0 2.5-.5 5-1.4 7.3s-2.4 4.4-4.1 6.2s-3.9 3.2-6.2 4.2s-4.8 1.5-7.3 1.5l0 0c-3.8 0-7.5-1.1-10.6-3.2zM448 96c0-35.3-28.7-64-64-64H64C28.7 32 0 60.7 0 96V416c0 35.3 28.7 64 64 64H384c35.3 0 64-28.7 64-64V96zM357 389c-18.7 18.7-41.4 24.6-67 25.9c-26.4 1.5-105.6 1.5-132 0c-25.6-1.3-48.3-7.2-67-25.9s-24.6-41.4-25.8-67c-1.5-26.4-1.5-105.6 0-132c1.3-25.6 7.1-48.3 25.8-67s41.5-24.6 67-25.8c26.4-1.5 105.6-1.5 132 0c25.6 1.3 48.3 7.1 67 25.8s24.6 41.4 25.8 67c1.5 26.3 1.5 105.4 0 131.9c-1.3 25.6-7.1 48.3-25.8 67z"/></svg>
